X:52
T:Polska ur Petter Dufvas notbok (Ma6-52)
R:Polska
O:Verkelbäck, Småland
B:Petter Dufvas notbok
S:Petter Dufva
N:Smus Ma6 bild 54
M:3/4
L:1/8
K:D
DD FFAA|d/c/B/A/ GFED|AA ccee|a/^g/f/e/ dcBA|eef^g aA|B^G A2A2:|
|:ee ABcd|ee/f/ ggfe|ggff ec|df edcB|AABB cc|d2D4:|

